X:1
T:Title
%%score { 1 | ( 2 3 ) }
L:1/8
Q:1/4=75
M:4/4
K:C
V:1 treble nm="Church Organ"
V:2 bass 
V:3 bass 
V:1
 AA .A2 z4 | z8 | z8 | z8 | z8 |] %5
w: DEVICE=GENERAL.MDV * *|||||
V:2
 z2 z A DFED | z[K:treble] AAB GAcB | [A,,E,CA]2 z A Bcdc | AcBA .G2 A[K:bass]A | %4
 BGEG A[K:treble]A z2 |] %5
V:3
 z [D,F,A,]3- [D,F,A,] [D,-G,A,-]3 | [D,A,][K:treble] z [A,,A,C]4 [A,,G,D]2 | %2
 z2 z [D,DF]- [D,DF]2 [D,DF]2 | [C,A,E]2 [E,G,E]4 z[K:bass] [C,CE]- | %4
 [C,-C-E]2 [C,C][E,B,E]- [E,B,E][K:treble] .[A,CE]3 |] %5

